X: 31864
T: Pavee, The
R: jig
M: 6/8
K: Gmajor
|:g3 dBG|e3 cFA|DGG Bdd|DFA ABd|
g3 dBG|e3 cFA|DGG Bdd|1 cAF GBd:|2 cAF G2d||
|:DGG B2d|c2e dBG|cde dBG|FAA AFA|
DGG B2d|cee dBG|cde dBG|1 cAF G2G:|2 cAF GBd||

